assets/arrow-up-right-from-square.svg

<svg xmlns="http://www.w3.org/2000/svg" viewBox="0 0 512 512"><path d="M392 320c-13.25 0-24 10.75-24 24v112c0 4.406-3.594 8-8 8H56c-4.406 0-8-3.594-8-8V152c0-4.406 3.594-8 8-8h112c13.25 0 24-10.75 24-24s-10.75-24-24-24H56c-30.875 0-56 25.125-56 56v304c0 30.875 25.125 56 56 56h304c30.875 0 56-25.125 56-56V344c0-13.25-10.75-24-24-24ZM488 0H320c-13.25 0-24 10.75-24 24s10.75 24 24 24h110.062L183.031 295.031c-9.375 9.375-9.375 24.563 0 33.938A23.9 23.9 0 0 0 200 336a23.9 23.9 0 0 0 16.969-7.031L464 81.938V192c0 13.25 10.75 24 24 24s24-10.75 24-24V24c0-13.25-10.75-24-24-24Z"/></svg>

<svg xmlns="http://www.w3.org/2000/svg" viewBox="0 0 512 512"><!-- Font Awesome Pro 6.0.0-alpha2 by @fontawesome - https://fontawesome.com License - https://fontawesome.com/license (Commercial License) --><path d="M392 320C378.75 320 368 330.75 368 344V456C368 460.406 364.406 464 360 464H56C51.594 464 48 460.406 48 456V152C48 147.594 51.594 144 56 144H168C181.25 144 192 133.25 192 120S181.25 96 168 96H56C25.125 96 0 121.125 0 152V456C0 486.875 25.125 512 56 512H360C390.875 512 416 486.875 416 456V344C416 330.75 405.25 320 392 320ZM488 0H320C306.75 0 296 10.75 296 24S306.75 48 320 48H430.062L183.031 295.031C173.656 304.406 173.656 319.594 183.031 328.969C187.719 333.656 193.844 336 200 336S212.281 333.656 216.969 328.969L464 81.938V192C464 205.25 474.75 216 488 216S512 205.25 512 192V24C512 10.75 501.25 0 488 0Z"/></svg>
